flaticon/constructions/wrench-2.svg

<svg xmlns="http://www.w3.org/2000/svg" width="32" height="32" viewBox="0 0 24 24">
    <path d="M 14.378906 18.714844 C 13.824219 16.164062 13.585938 14.367188 13.585938 13.210938 L 13.585938 10.804688 C 13.585938 8.742188 13.859375 7.03125 14.371094 5.367188 C 14.910156 4.761719 15.230469 4.003906 15.230469 3.183594 C 15.230469 2.222656 14.789062 1.296875 14.027344 0.695312 C 13.945312 0.617188 13.785156 0.578125 13.664062 0.617188 C 13.503906 0.65625 13.425781 0.777344 13.382812 0.898438 L 12.78125 3.101562 C 12.261719 3.304688 11.660156 3.144531 11.257812 2.703125 L 11.820312 0.496094 C 11.859375 0.375 11.820312 0.253906 11.738281 0.136719 C 11.660156 0.015625 11.5 -0.0234375 11.378906 0.015625 C 9.652344 0.375 8.570312 1.980469 8.851562 3.703125 C 8.960938 4.308594 9.230469 4.855469 9.613281 5.292969 C 9.613281 5.300781 9.613281 5.304688 9.613281 5.308594 C 10.175781 6.992188 10.414062 8.71875 10.414062 10.804688 L 10.414062 13.210938 C 10.414062 13.609375 10.386719 14.085938 10.328125 14.644531 C 10.304688 14.695312 10.296875 14.753906 10.296875 14.816406 C 10.296875 14.835938 10.296875 14.859375 10.300781 14.878906 C 10.179688 15.894531 9.960938 17.15625 9.625 18.695312 C 9.089844 19.300781 8.769531 20.054688 8.769531 20.871094 C 8.769531 21.835938 9.210938 22.757812 9.972656 23.359375 C 10.054688 23.4375 10.214844 23.480469 10.335938 23.4375 C 10.496094 23.398438 10.574219 23.277344 10.617188 23.15625 L 11.21875 20.953125 C 11.78125 20.75 12.382812 20.910156 12.78125 21.351562 L 12.21875 23.519531 C 12.179688 23.640625 12.21875 23.757812 12.300781 23.878906 C 12.382812 23.960938 12.460938 24 12.582031 24 C 12.621094 24 12.660156 24 12.621094 24 C 14.347656 23.640625 15.429688 22.035156 15.148438 20.308594 C 15.039062 19.703125 14.765625 19.152344 14.378906 18.714844 Z M 13.425781 17.945312 C 13.183594 17.824219 12.941406 17.703125 12.660156 17.664062 C 11.941406 17.542969 11.257812 17.621094 10.617188 17.945312 C 10.691406 17.550781 10.757812 17.175781 10.820312 16.820312 L 11.617188 16.820312 C 11.859375 16.820312 12.019531 16.660156 12.019531 16.417969 C 12.019531 16.179688 11.859375 16.019531 11.617188 16.019531 L 10.949219 16.019531 C 10.992188 15.738281 11.03125 15.46875 11.0625 15.214844 L 11.617188 15.214844 C 11.859375 15.214844 12.019531 15.054688 12.019531 14.816406 C 12.019531 14.574219 11.859375 14.414062 11.617188 14.414062 L 11.152344 14.414062 C 11.195312 13.960938 11.21875 13.5625 11.21875 13.210938 L 11.21875 10.804688 C 11.21875 9.078125 11.058594 7.554688 10.695312 6.113281 C 10.9375 6.191406 11.136719 6.273438 11.378906 6.351562 C 11.894531 6.445312 12.414062 6.417969 12.894531 6.28125 C 13.046875 6.238281 13.195312 6.1875 13.339844 6.125 C 12.980469 7.5625 12.824219 9.085938 12.824219 10.804688 L 12.824219 13.210938 C 12.820312 14.292969 13.023438 15.816406 13.425781 17.945312 Z M 10.855469 1.058594 L 10.457031 2.703125 C 10.414062 2.824219 10.414062 2.941406 10.535156 3.0625 L 10.65625 3.222656 C 11.257812 3.90625 12.21875 4.144531 13.0625 3.867188 L 13.261719 3.824219 C 13.382812 3.785156 13.464844 3.664062 13.503906 3.542969 L 13.984375 1.820312 C 14.265625 2.222656 14.425781 2.664062 14.425781 3.183594 C 14.425781 3.90625 14.105469 4.585938 13.542969 5.027344 C 12.984375 5.46875 12.261719 5.671875 11.539062 5.511719 C 10.578125 5.347656 9.8125 4.546875 9.652344 3.585938 C 9.492188 2.542969 9.972656 1.539062 10.855469 1.058594 Z M 13.183594 22.917969 L 13.625 21.3125 C 13.664062 21.191406 13.625 21.070312 13.542969 20.953125 L 13.382812 20.792969 C 12.941406 20.308594 12.339844 20.027344 11.699219 20.027344 C 11.457031 20.027344 11.21875 20.070312 10.976562 20.109375 L 10.777344 20.191406 C 10.65625 20.230469 10.574219 20.351562 10.535156 20.46875 L 10.054688 22.195312 C 9.773438 21.792969 9.613281 21.351562 9.613281 20.832031 C 9.613281 20.207031 9.851562 19.617188 10.277344 19.15625 C 10.296875 19.140625 10.316406 19.125 10.335938 19.105469 C 10.503906 18.941406 10.691406 18.800781 10.894531 18.691406 C 11.378906 18.449219 11.941406 18.371094 12.5 18.464844 C 12.941406 18.546875 13.382812 18.785156 13.703125 19.105469 C 13.734375 19.136719 13.761719 19.15625 13.789062 19.175781 C 14.097656 19.507812 14.308594 19.933594 14.386719 20.390625 C 14.585938 21.433594 14.066406 22.4375 13.183594 22.917969 Z M 13.183594 22.917969"/>
</svg>

<svg xmlns="http://www.w3.org/2000/svg" width="32" height="32" viewBox="0 0 24 24">
    <path d="M14.379 18.715c-.555-2.55-.793-4.348-.793-5.504v-2.406c0-2.063.273-3.774.785-5.438.54-.605.86-1.363.86-2.183 0-.961-.442-1.887-1.204-2.489a.398.398 0 0 0-.363-.078c-.16.04-.238.16-.281.281l-.602 2.204c-.52.203-1.12.043-1.523-.399L11.82.496c.04-.121 0-.242-.082-.36-.078-.12-.238-.16-.36-.12C9.653.375 8.57 1.98 8.853 3.703c.109.606.378 1.152.761 1.59v.016c.563 1.683.801 3.41.801 5.496v2.406c0 .398-.027.875-.086 1.434a.409.409 0 0 0-.031.171c0 .02 0 .043.004.063-.121 1.016-.34 2.277-.676 3.816-.535.606-.855 1.36-.855 2.176 0 .965.44 1.887 1.203 2.488a.387.387 0 0 0 .363.078c.16-.039.238-.16.281-.28l.602-2.204a1.428 1.428 0 0 1 1.562.399l-.562 2.168c-.04.12 0 .238.082.359.082.082.16.121.281.121h.04c1.726-.36 2.808-1.965 2.526-3.691a3.295 3.295 0 0 0-.77-1.594zm-.953-.77c-.242-.12-.485-.242-.766-.28-.719-.122-1.402-.044-2.043.28.074-.394.14-.77.203-1.125h.797c.242 0 .403-.16.403-.402 0-.238-.16-.398-.403-.398h-.668c.043-.282.082-.551.114-.805h.554c.242 0 .403-.16.403-.399 0-.242-.16-.402-.403-.402h-.465c.043-.453.067-.851.067-1.203v-2.406c0-1.727-.16-3.25-.524-4.692.242.078.442.16.684.239a3.353 3.353 0 0 0 1.516-.07c.152-.044.3-.095.445-.157-.36 1.438-.516 2.96-.516 4.68v2.406c-.004 1.082.2 2.605.602 4.734zM10.856 1.06l-.399 1.644c-.043.121-.043.238.078.36l.121.16a2.273 2.273 0 0 0 2.406.644l.2-.043c.12-.039.203-.16.242-.281l.48-1.723c.282.403.442.844.442 1.364 0 .722-.32 1.402-.883 1.843-.559.442-1.281.645-2.004.485-.96-.164-1.726-.965-1.887-1.926-.16-1.043.32-2.047 1.203-2.527zm2.328 21.859l.441-1.605c.04-.122 0-.243-.082-.36l-.16-.16a2.277 2.277 0 0 0-1.684-.766c-.242 0-.48.043-.722.082l-.2.082c-.12.04-.203.16-.242.278l-.48 1.726a2.31 2.31 0 0 1-.442-1.363c0-.625.239-1.215.664-1.676.02-.015.04-.031.059-.05.168-.165.355-.305.559-.415a2.619 2.619 0 0 1 1.605-.226c.441.082.883.32 1.203.64.031.032.059.051.086.07.309.333.52.759.598 1.216a2.371 2.371 0 0 1-1.203 2.527zm0 0"/>
</svg>
